X:500
T:Lord Ramsay
R:Strathspey
C:Nathaniel Gow
B:The Athole Collection
M:C
L:1/8
K:B_
e|d>ef>g f<d f2|d>fb>g f<d c2|d>ef>g f>g d<b|f<d d>B c2B:|
B|F>B D<B F<B D2|dc/B/ fd c>B G<B|F>B D<B F<B D>e|
dc/B/ f>d ~c2 B>d|F>Bd>B F<B D2|dc/B/ f>d c>B G<B|
F>BD>F E>GF>e|d>b g/f/e/d/ c2B||

